X: 04007
T: BARRY'S REEL
C: Bob McQuillen 14 Sept 78
B: Bob's Note Book 04 #7
%R: reel
Z: 2020 John Chambers <jc:trillian.mit.edu>
M: C|
L: 1/8
K: G
DE \
| GABG AGED | GBde d2ga | bgab ageg | dBGB A2DE |\
| GABG AGED | GBde dega | bgab aged | egga g2 :|
|:: ga \
| b2ba bagb | ageg d2GB | d2d2 d2d2 | d3g d2ga |\
| b2ba bagb | ageg d2Bc | d2d2 cA3  | G6 :|
%%begintext align
%% On this nice September day,
%% Barry Nielsen went away.
%% This tune will tell you where.
%%endtext

%%sep 1 1 500

%%sep 1 1 500

